archdroid-icon-theme/Archdroid-Amber/emblems/scalable/emblem-default.svg

<svg xmlns="http://www.w3.org/2000/svg" viewBox="0 0 48 48" fill="#000000"><path d="m24 4c-11.05 0-20 8.95-20 20 0 11.04 8.95 20 20 20 11.04 0 20-8.96 20-20 0-11.05-8.96-20-20-20m-4 30l-10-10 2.83-2.83 7.17 7.17 15.17-15.17 2.83 2.83-18 18"/></svg>

<?xml version="1.0" encoding="UTF-8" standalone="no"?>
<svg
   xmlns:dc="http://purl.org/dc/elements/1.1/"
   xmlns:cc="http://creativecommons.org/ns#"
   xmlns:rdf="http://www.w3.org/1999/02/22-rdf-syntax-ns#"
   xmlns:svg="http://www.w3.org/2000/svg"
   xmlns="http://www.w3.org/2000/svg"
   xmlns:sodipodi="http://sodipodi.sourceforge.net/DTD/sodipodi-0.dtd"
   xmlns:inkscape="http://www.inkscape.org/namespaces/inkscape"
   width="48"
   height="48"
   viewBox="0 0 48 48"
   id="svg2"
   version="1.1"
   inkscape:version="0.91 r13725"
   sodipodi:docname="gtk-yes.svg"
   style="fill:#000000">
  <metadata
     id="metadata10">
    <rdf:RDF>
      <cc:Work
         rdf:about="">
        <dc:format>image/svg+xml</dc:format>
        <dc:type
           rdf:resource="http://purl.org/dc/dcmitype/StillImage" />
        <dc:title></dc:title>
      </cc:Work>
    </rdf:RDF>
  </metadata>
  <defs
     id="defs8" />
  <sodipodi:namedview
     pagecolor="#ffffff"
     bordercolor="#666666"
     borderopacity="1"
     objecttolerance="10"
     gridtolerance="10"
     guidetolerance="10"
     inkscape:pageopacity="0"
     inkscape:pageshadow="2"
     inkscape:window-width="668"
     inkscape:window-height="480"
     id="namedview6"
     showgrid="false"
     fit-margin-top="0"
     fit-margin-left="0"
     fit-margin-right="0"
     fit-margin-bottom="0"
     inkscape:zoom="6.549153645833334"
     inkscape:cx="20"
     inkscape:cy="20"
     inkscape:window-x="0"
     inkscape:window-y="30"
     inkscape:window-maximized="0"
     inkscape:current-layer="svg2" />
  <path
     d="M 24,4 C 12.95,4 4,12.95 4,24 4,35.04 12.95,44 24,44 35.04,44 44,35.04 44,24 44,12.95 35.04,4 24,4 Z M 20,34 10,24 12.83,21.17 20,28.34 35.17,13.17 38,16 20,34 Z"
     id="path4"
     inkscape:connector-curvature="0" />
</svg>
